X: 34243
T: Reel With The Birl, The
R: reel
M: 4/4
K: Ddorian
|:D2AD cDAD|D2cA GFEF|D2AD cDAD|c3A GFEF|
D2AD cDAD|D2AD C3E|FADE FGAB|1 c3A GFEF:|2 c3A G3c||
|:Addd defd|ec~c2 Gceg|f3d edcd|egga gedc|
eaag efge fdec dcAG|FDDE FGAB|1 c3A G3c:|2 c3A GFEF||

